file/boss.svg

<svg clip-rule="evenodd" fill-rule="evenodd" stroke-linejoin="round" stroke-miterlimit="1.41421" viewBox="0 0 560 400" xmlns="http://www.w3.org/2000/svg"><path d="m156.789 143.713h-2.66c-.551-2.935-3.027-4.311-5.961-4.311-4.951 0-6.969 4.127-6.969 8.254 0 4.034 2.568 7.886 7.429 7.795 2.475-.092 4.493-.55 5.502-2.201.733-1.009.55-2.842.458-4.218h-6.419v-2.201h8.804v7.244c-2.293 2.843-5.044 3.302-8.712 3.485-6.053.366-9.721-4.769-9.721-9.812 0-5.595 3.209-10.454 9.628-10.454 4.402 0 7.887 1.834 8.621 6.419zm-41.817 6.328c0 4.86-2.935 7.427-7.978 7.427-5.135 0-8.253-2.292-8.253-7.427v-12.289h2.751v12.289c0 3.392 2.018 5.319 5.502 5.319 3.393 0 5.319-1.927 5.319-5.319v-12.289h2.659zm74.922-12.747c6.419 0 9.628 4.859 9.628 10.087 0 5.227-3.209 10.087-9.628 10.087s-9.629-4.86-9.629-10.087c0-5.228 3.21-10.087 9.629-10.087zm110.502 0c6.419 0 9.721 4.859 9.721 10.087 0 5.227-3.302 10.087-9.721 10.087s-9.628-4.86-9.628-10.087c0-5.228 3.209-10.087 9.628-10.087zm46.677 6.142v.001c-.274-2.842-2.201-4.035-4.952-4.035-2.292 0-4.494.826-4.494 3.301 0 2.385 3.21 2.752 6.419 3.485 3.21.643 6.419 1.743 6.419 5.594 0 4.035-4.218 5.685-7.887 5.685-4.494 0-8.253-2.108-8.253-6.786h2.477c0 3.209 2.843 4.678 5.869 4.678 2.476 0 5.135-.734 5.135-3.577 0-2.659-3.21-3.026-6.419-3.761-3.21-.641-6.511-1.558-6.511-5.135 0-3.852 3.668-5.593 7.336-5.593 4.126 0 7.245 1.834 7.428 6.143zm43.467 0v.001c-.366-2.842-2.292-4.035-5.043-4.035-2.201 0-4.493.826-4.493 3.301 0 2.385 3.209 2.752 6.51 3.485 3.209.643 6.419 1.743 6.419 5.594 0 4.035-4.218 5.685-7.887 5.685-4.493 0-8.344-2.108-8.344-6.786h2.567c0 3.209 2.843 4.678 5.869 4.678 2.384 0 5.135-.734 5.135-3.577 0-2.659-3.301-3.026-6.511-3.761-3.209-.641-6.419-1.558-6.419-5.135 0-3.852 3.576-5.593 7.336-5.593 4.035 0 7.245 1.834 7.336 6.143zm-331.415 13.574h-2.751v-19.258h2.751v8.253h10.545v-8.253h2.66v19.258h-2.66v-8.804h-10.545zm201.471 0h-9.72v-19.258h7.245c1.834 0 4.125 0 5.318.642 1.375.826 2.384 2.201 2.384 4.035 0 2.108-1.101 3.668-2.935 4.402 2.476.458 3.853 2.292 3.853 4.677 0 2.842-2.201 5.502-6.145 5.502zm39.8-1.65c4.952 0 6.97-4.127 6.97-7.979s-2.018-7.979-6.97-7.979c-4.86 0-6.969 4.127-6.969 7.979s2.109 7.979 6.969 7.979zm-110.502 0c4.86 0 6.97-4.127 6.97-7.979s-2.11-7.979-6.97-7.979c-4.952 0-6.97 4.127-6.97 7.979s2.018 7.979 6.97 7.979zm69.694-7.154h-6.052v6.695h6.694c2.292 0 3.76-1.375 3.76-3.485 0-2.477-2.109-3.21-4.402-3.21zm-.734-8.345h-5.318v6.145h5.318c3.026 0 4.311-1.01 4.311-3.027 0-2.659-1.926-3.118-4.311-3.118zm-22.65-48.328c-4.218 12.564-12.655 20.451-22.375 25.585-12.748 6.878-30.996 7.979-43.743.368-7.886-4.678-27.969-17.149-25.311-46.585.551-6.328 3.76-22.192 21.459-34.113 12.105-7.887 29.529-10.18 45.76-2.66 25.311 11.554 30.629 40.073 24.21 57.405zm154.703-55.48c.092 6.602 0 20.267 0 20.267l-3.209.092c-1.926-8.529-6.052-15.865-13.114-19.258-6.786-3.301-17.057-4.951-23.751.917-3.944 3.485-4.494 7.062-3.118 11.097 2.385 5.961 8.987 7.795 14.123 10.087 4.218 1.651 13.205 4.585 13.205 4.585 9.996 3.485 21.092 10.271 24.119 21.551 1.375 4.86 1.375 10.362.274 15.314-2.476 11.004-9.536 13.664-13.571 16.414-2.018 1.376-20.909 8.621-43.651 1.193-4.677-1.56-10.087-3.394-10.087-3.394v-24.668s2.476.091 3.484.091c1.559 3.943 2.935 8.711 6.236 13.48 7.703 11.188 18.616 14.581 30.63 12.013 4.768-1.1 9.995-4.402 11.371-9.354 1.742-5.595 1.192-14.856-15.682-21.092-12.196-5.594-27.511-7.886-34.755-21.458-2.843-7.612-2.018-20.817 7.428-27.237 9.354-6.419 18.524-7.886 29.528-6.419 11.094 1.561 14.029 3.028 20.54 5.779zm-80.332 0c.092 6.602 0 20.267 0 20.267l-3.209.092c-1.926-8.529-6.052-15.865-13.113-19.258-6.787-3.301-17.058-4.951-23.751.917-3.944 3.485-4.494 7.062-3.118 11.097 2.385 5.961 8.987 7.795 14.123 10.087 4.218 1.651 13.205 4.585 13.205 4.585 9.996 3.485 21.092 10.271 24.119 21.551 1.375 4.86 1.375 10.362.274 15.314-2.477 11.004-9.537 13.664-13.572 16.414-2.018 1.376-20.909 8.621-43.651 1.193-4.677-1.56-10.088-3.394-10.088-3.394v-24.668s2.476.091 3.484.091c1.56 3.943 2.936 8.711 6.237 13.48 7.703 11.188 18.616 14.581 30.629 12.013 4.768-1.1 9.996-4.402 11.371-9.354 1.742-5.595 1.192-14.856-15.681-21.092-12.197-5.594-27.511-7.886-34.756-21.458-2.843-7.612-2.017-20.817 7.336-27.237 9.446-6.419 18.616-7.886 29.712-6.419 11.004 1.561 13.938 3.028 20.449 5.779zm-203.764-4.126c9.446.55 15.59 5.593 16.14 6.236 4.86 4.492 6.328 11.278 5.135 17.79-1.559 10.913-15.131 15.498-15.131 15.498 11.371 1.375 19.9 9.904 21.183 19.074 1.102 8.987-2.2 16.966-9.628 22.559-7.52 5.594-18.524 7.429-24.485 7.429h-48.603v-3.852c6.235.091 6.97.091 6.97-2.384-.092-9.354 0-74.646 0-76.39 0-2.017-1.009-2.109-6.97-2.109-.092-1.558.092-3.851.092-3.851zm75.013 4.768c-6.052 4.035-10.271 13.298-12.288 21-3.21 11.646-2.568 25.402.642 39.524 3.301 14.122 12.379 19.074 17.79 20.267 10.088 2.292 16.69-3.577 20.267-8.987 6.97-10.545 8.712-32.279 6.511-44.751-2.017-11.554-5.135-19.624-11.188-25.035-6.787-5.961-16.507-5.502-21.734-2.018zm-87.943 37.965h-13.847v41.542h11.371c.018.001 6.427.451 12.196-4.218 5.686-4.585 8.62-11.371 7.979-19.166-.458-6.97-5.778-16.874-17.699-18.158zm-13.847-38.698v34.663h12.563s1.1-.091 1.742-.274c7.336-.643 12.013-9.446 12.471-15.865.734-6.878-3.485-18.25-14.03-18.524-3.117-.092-12.746 0-12.746 0z" fill="#231f20" fill-rule="nonzero" transform="matrix(1.03201 0 0 1.03201 46.9586 103.45)"/></svg>

<?xml version="1.0" encoding="UTF-8" standalone="no"?>
<!DOCTYPE svg PUBLIC "-//W3C//DTD SVG 1.1//EN" "http://www.w3.org/Graphics/SVG/1.1/DTD/svg11.dtd">
<svg width="100%" height="100%" viewBox="0 0 560 400" version="1.1" xmlns="http://www.w3.org/2000/svg" xmlns:xlink="http://www.w3.org/1999/xlink" xml:space="preserve" xmlns:serif="http://www.serif.com/" style="fill-rule:evenodd;clip-rule:evenodd;stroke-linejoin:round;stroke-miterlimit:1.41421;">
    <g id="h" transform="matrix(1.03201,0,0,1.03201,46.9586,103.45)">
        <path d="M156.789,143.713L154.129,143.713C153.578,140.778 151.102,139.402 148.168,139.402C143.217,139.402 141.199,143.529 141.199,147.656C141.199,151.69 143.767,155.542 148.628,155.451C151.103,155.359 153.121,154.901 154.13,153.25C154.863,152.241 154.68,150.408 154.588,149.032L148.169,149.032L148.169,146.831L156.973,146.831L156.973,154.075C154.68,156.918 151.929,157.377 148.261,157.56C142.208,157.926 138.54,152.791 138.54,147.748C138.54,142.153 141.749,137.294 148.168,137.294C152.57,137.294 156.055,139.128 156.789,143.713ZM114.972,150.041C114.972,154.901 112.037,157.468 106.994,157.468C101.859,157.468 98.741,155.176 98.741,150.041L98.741,137.752L101.492,137.752L101.492,150.041C101.492,153.433 103.51,155.36 106.994,155.36C110.387,155.36 112.313,153.433 112.313,150.041L112.313,137.752L114.972,137.752L114.972,150.041ZM189.894,137.294C196.313,137.294 199.522,142.153 199.522,147.381C199.522,152.608 196.313,157.468 189.894,157.468C183.475,157.468 180.265,152.608 180.265,147.381C180.265,142.153 183.475,137.294 189.894,137.294ZM300.396,137.294C306.815,137.294 310.117,142.153 310.117,147.381C310.117,152.608 306.815,157.468 300.396,157.468C293.977,157.468 290.768,152.608 290.768,147.381C290.768,142.153 293.977,137.294 300.396,137.294ZM347.073,143.436L347.073,143.437C346.799,140.595 344.872,139.402 342.121,139.402C339.829,139.402 337.627,140.228 337.627,142.703C337.627,145.088 340.837,145.455 344.046,146.188C347.256,146.831 350.465,147.931 350.465,151.782C350.465,155.817 346.247,157.467 342.578,157.467C338.084,157.467 334.325,155.359 334.325,150.681L336.802,150.681C336.802,153.89 339.645,155.359 342.671,155.359C345.147,155.359 347.806,154.625 347.806,151.782C347.806,149.123 344.596,148.756 341.387,148.021C338.177,147.38 334.876,146.463 334.876,142.886C334.876,139.034 338.544,137.293 342.212,137.293C346.338,137.293 349.457,139.127 349.64,143.436L347.073,143.436ZM390.54,143.436L390.54,143.437C390.174,140.595 388.248,139.402 385.497,139.402C383.296,139.402 381.004,140.228 381.004,142.703C381.004,145.088 384.213,145.455 387.514,146.188C390.723,146.831 393.933,147.931 393.933,151.782C393.933,155.817 389.715,157.467 386.046,157.467C381.553,157.467 377.702,155.359 377.702,150.681L380.269,150.681C380.269,153.89 383.112,155.359 386.138,155.359C388.522,155.359 391.273,154.625 391.273,151.782C391.273,149.123 387.972,148.756 384.762,148.021C381.553,147.38 378.343,146.463 378.343,142.886C378.343,139.034 381.919,137.293 385.679,137.293C389.714,137.293 392.924,139.127 393.015,143.436L390.54,143.436ZM59.125,157.01L56.374,157.01L56.374,137.752L59.125,137.752L59.125,146.005L69.67,146.005L69.67,137.752L72.33,137.752L72.33,157.01L69.67,157.01L69.67,148.206L59.125,148.206L59.125,157.01ZM260.596,157.01L250.876,157.01L250.876,137.752L258.121,137.752C259.955,137.752 262.246,137.752 263.439,138.394C264.814,139.22 265.823,140.595 265.823,142.429C265.823,144.537 264.722,146.097 262.888,146.831C265.364,147.289 266.741,149.123 266.741,151.508C266.741,154.35 264.54,157.01 260.596,157.01ZM300.396,155.36C305.348,155.36 307.366,151.233 307.366,147.381C307.366,143.529 305.348,139.402 300.396,139.402C295.536,139.402 293.427,143.529 293.427,147.381C293.427,151.233 295.536,155.36 300.396,155.36ZM189.894,155.36C194.754,155.36 196.864,151.233 196.864,147.381C196.864,143.529 194.754,139.402 189.894,139.402C184.942,139.402 182.924,143.529 182.924,147.381C182.924,151.233 184.942,155.36 189.894,155.36ZM259.588,148.206L253.536,148.206L253.536,154.901L260.23,154.901C262.522,154.901 263.99,153.526 263.99,151.416C263.99,148.939 261.881,148.206 259.588,148.206ZM258.854,139.861L253.536,139.861L253.536,146.006L258.854,146.006C261.88,146.006 263.165,144.996 263.165,142.979C263.165,140.32 261.239,139.861 258.854,139.861ZM236.204,91.533C231.986,104.097 223.549,111.984 213.829,117.118C201.081,123.996 182.833,125.097 170.086,117.486C162.2,112.808 142.117,100.337 144.775,70.901C145.326,64.573 148.535,48.709 166.234,36.788C178.339,28.901 195.763,26.608 211.994,34.128C237.305,45.682 242.623,74.201 236.204,91.533ZM390.907,36.053C390.999,42.655 390.907,56.32 390.907,56.32L387.698,56.412C385.772,47.883 381.646,40.547 374.584,37.154C367.798,33.853 357.527,32.203 350.833,38.071C346.889,41.556 346.339,45.133 347.715,49.168C350.1,55.129 356.702,56.963 361.838,59.255C366.056,60.906 375.043,63.84 375.043,63.84C385.039,67.325 396.135,74.111 399.162,85.391C400.537,90.251 400.537,95.753 399.436,100.705C396.96,111.709 389.9,114.369 385.865,117.119C383.847,118.495 364.956,125.74 342.214,118.312C337.537,116.752 332.127,114.918 332.127,114.918L332.127,90.25C332.127,90.25 334.603,90.341 335.611,90.341C337.17,94.284 338.546,99.052 341.847,103.821C349.55,115.009 360.463,118.402 372.477,115.834C377.245,114.734 382.472,111.432 383.848,106.48C385.59,100.885 385.04,91.624 368.166,85.388C355.97,79.794 340.655,77.502 333.411,63.93C330.568,56.318 331.393,43.113 340.839,36.693C350.193,30.274 359.363,28.807 370.367,30.274C381.461,31.835 384.396,33.302 390.907,36.053ZM310.575,36.053C310.667,42.655 310.575,56.32 310.575,56.32L307.366,56.412C305.44,47.883 301.314,40.547 294.253,37.154C287.466,33.853 277.195,32.203 270.502,38.071C266.558,41.556 266.008,45.133 267.384,49.168C269.769,55.129 276.371,56.963 281.507,59.255C285.725,60.906 294.712,63.84 294.712,63.84C304.708,67.325 315.804,74.111 318.831,85.391C320.206,90.251 320.206,95.753 319.105,100.705C316.628,111.709 309.568,114.369 305.533,117.119C303.515,118.495 284.624,125.74 261.882,118.312C257.205,116.752 251.794,114.918 251.794,114.918L251.794,90.25C251.794,90.25 254.27,90.341 255.278,90.341C256.838,94.284 258.214,99.052 261.515,103.821C269.218,115.009 280.131,118.402 292.144,115.834C296.912,114.734 302.14,111.432 303.515,106.48C305.257,100.885 304.707,91.624 287.834,85.388C275.637,79.794 260.323,77.502 253.078,63.93C250.235,56.318 251.061,43.113 260.414,36.693C269.86,30.274 279.03,28.807 290.126,30.274C301.13,31.835 304.064,33.302 310.575,36.053ZM106.811,31.927C116.257,32.477 122.401,37.52 122.951,38.163C127.811,42.655 129.279,49.441 128.086,55.953C126.527,66.866 112.955,71.451 112.955,71.451C124.326,72.826 132.855,81.355 134.138,90.525C135.24,99.512 131.938,107.491 124.51,113.084C116.99,118.678 105.986,120.513 100.025,120.513L51.422,120.513L51.422,116.661C57.657,116.752 58.392,116.752 58.392,114.277C58.3,104.923 58.392,39.631 58.392,37.887C58.392,35.87 57.383,35.778 51.422,35.778C51.33,34.22 51.514,31.927 51.514,31.927L106.811,31.927ZM181.824,36.695C175.772,40.73 171.553,49.993 169.536,57.695C166.326,69.341 166.968,83.097 170.178,97.219C173.479,111.341 182.557,116.293 187.968,117.486C198.056,119.778 204.658,113.909 208.235,108.499C215.205,97.954 216.947,76.22 214.746,63.748C212.729,52.194 209.611,44.124 203.558,38.713C196.771,32.752 187.051,33.211 181.824,36.695ZM93.881,74.66L80.034,74.66L80.034,116.202L91.405,116.202C91.423,116.203 97.832,116.653 103.601,111.984C109.287,107.399 112.221,100.613 111.58,92.818C111.122,85.848 105.802,75.944 93.881,74.66ZM80.034,35.962L80.034,70.625L92.597,70.625C92.597,70.625 93.697,70.534 94.339,70.351C101.675,69.708 106.352,60.905 106.81,54.486C107.544,47.608 103.325,36.236 92.78,35.962C89.663,35.87 80.034,35.962 80.034,35.962Z" style="fill:rgb(35,31,32);fill-rule:nonzero;"/>
    </g>
</svg>
